flaticon/emoticons/goofy-4.svg

<svg xmlns="http://www.w3.org/2000/svg" width="32" height="32" viewBox="0 0 24 24">
    <path d="M 12 0 C 5.382812 0 0 5.382812 0 12 C 0 18.617188 5.382812 24 12 24 C 18.617188 24 24 18.617188 24 12 C 24 5.382812 18.617188 0 12 0 Z M 12 22.910156 C 5.984375 22.910156 1.089844 18.015625 1.089844 12 C 1.089844 5.984375 5.984375 1.089844 12 1.089844 C 18.015625 1.089844 22.910156 5.984375 22.910156 12 C 22.910156 18.015625 18.015625 22.910156 12 22.910156 Z M 12 22.910156"/>
    <path d="M7.089844 7.636719C7.992188 7.636719 8.726562 8.371094 8.726562 9.273438 8.726562 9.574219 8.972656 9.816406 9.273438 9.816406 9.574219 9.816406 9.816406 9.574219 9.816406 9.273438 9.816406 7.769531 8.59375 6.546875 7.089844 6.546875 5.585938 6.546875 4.363281 7.769531 4.363281 9.273438 4.363281 9.574219 4.609375 9.816406 4.910156 9.816406 5.210938 9.816406 5.453125 9.574219 5.453125 9.273438 5.453125 8.371094 6.1875 7.636719 7.089844 7.636719zM16.910156 6.546875C15.40625 6.546875 14.183594 7.769531 14.183594 9.273438 14.183594 9.574219 14.425781 9.816406 14.726562 9.816406 15.027344 9.816406 15.273438 9.574219 15.273438 9.273438 15.273438 8.371094 16.007812 7.636719 16.910156 7.636719 17.8125 7.636719 18.546875 8.371094 18.546875 9.273438 18.546875 9.574219 18.789062 9.816406 19.089844 9.816406 19.390625 9.816406 19.636719 9.574219 19.636719 9.273438 19.636719 7.769531 18.414062 6.546875 16.910156 6.546875zM18 13.636719L6 13.636719C5.699219 13.636719 5.453125 13.878906 5.453125 14.183594 5.453125 17.792969 8.390625 20.726562 12 20.726562 15.609375 20.726562 18.546875 17.792969 18.546875 14.183594 18.546875 13.878906 18.300781 13.636719 18 13.636719zM12.546875 14.726562L13.636719 14.726562 13.636719 15.816406 12.546875 15.816406zM11.453125 14.726562L11.453125 16.910156 10.363281 16.910156 10.363281 14.726562zM12 19.636719C9.175781 19.636719 6.847656 17.480469 6.574219 14.726562L9.273438 14.726562 9.273438 17.453125C9.273438 17.753906 9.515625 18 9.816406 18L12 18C12.300781 18 12.546875 17.753906 12.546875 17.453125L12.546875 16.910156 14.183594 16.910156C14.484375 16.910156 14.726562 16.664062 14.726562 16.363281L14.726562 14.726562 17.425781 14.726562C17.152344 17.480469 14.824219 19.636719 12 19.636719zM12 19.636719"/>
</svg>

<svg xmlns="http://www.w3.org/2000/svg" width="32" height="32" viewBox="0 0 24 24">
    <path d="M12 0C5.383 0 0 5.383 0 12s5.383 12 12 12 12-5.383 12-12S18.617 0 12 0zm0 22.91C5.984 22.91 1.09 18.016 1.09 12S5.984 1.09 12 1.09 22.91 5.984 22.91 12 18.016 22.91 12 22.91zm0 0"/>
    <path d="M7.09 7.637c.902 0 1.637.734 1.637 1.636a.545.545 0 0 0 1.09 0A2.729 2.729 0 0 0 7.09 6.547a2.729 2.729 0 0 0-2.727 2.726.545.545 0 0 0 1.09 0c0-.902.734-1.636 1.637-1.636zm0 0M16.91 6.547a2.729 2.729 0 0 0-2.726 2.726.545.545 0 0 0 1.09 0c0-.902.734-1.636 1.636-1.636.902 0 1.637.734 1.637 1.636a.545.545 0 0 0 1.09 0 2.729 2.729 0 0 0-2.727-2.726zm0 0M18 13.637H6c-.3 0-.547.242-.547.547 0 3.609 2.938 6.543 6.547 6.543 3.61 0 6.547-2.934 6.547-6.543a.546.546 0 0 0-.547-.547zm-5.453 1.09h1.09v1.09h-1.09zm-1.094 0v2.183h-1.09v-2.183zm.547 4.91a5.46 5.46 0 0 1-5.426-4.91h2.7v2.726c0 .3.242.547.542.547H12c.3 0 .547-.246.547-.547v-.543h1.637c.3 0 .543-.246.543-.547v-1.636h2.699A5.46 5.46 0 0 1 12 19.637zm0 0"/>
</svg>
